FINK
CUT[ICH WUSST EINMAL NICHTS ANZUFANGEN]
REG[Europa, Mitteleuropa, Deutschland]
KEY[F0065  16  A 2/4]
MEL[-5_  1_.23_4_  5_5_4_4_
    3__2_2_  3_3_4_4_  3__0_
    -5_  1_.23_4_  5_5_4_4_
    3__2_2_  3_3_4_4_  3__0__
    2__2_2_  2_2_2_0_
    3__3_3_  3_3_3_0_
    5__3_5_  4_-5_-5_
    -5-6  -7_-7-6-5_-5-7  2_2-7-5_0_
    3__3_3_  3_3_3_1_  2__0_
    -5_  5_.55_4_  3_3_2_2_  3__0_ //] >>
FCT[Liebe, Schaefer - Lied]
